SVG_Azure_Grouped/Management/Dynatrace.svg

<?xml version="1.0" encoding="UTF-8" standalone="no"?>
<!-- Generated by Microsoft Visio, SVG Export Dynatrace.svg Page-1 -->

<svg
   xmlns:dc="http://purl.org/dc/elements/1.1/"
   xmlns:cc="http://creativecommons.org/ns#"
   xmlns:rdf="http://www.w3.org/1999/02/22-rdf-syntax-ns#"
   xmlns:svg="http://www.w3.org/2000/svg"
   xmlns="http://www.w3.org/2000/svg"
   xmlns:sodipodi="http://sodipodi.sourceforge.net/DTD/sodipodi-0.dtd"
   xmlns:inkscape="http://www.inkscape.org/namespaces/inkscape"
   width="0.78344792in"
   height="0.78091198in"
   viewBox="0 0 56.408248 56.225802"
   xml:space="preserve"
   class="st7"
   version="1.1"
   id="svg44"
   sodipodi:docname="Dynatrace.svg"
   style="font-size:12px;overflow:visible;color-interpolation-filters:sRGB;fill:none;fill-rule:evenodd;stroke-linecap:square;stroke-miterlimit:3"
   inkscape:version="0.92.5 (2060ec1f9f, 2020-04-08)"><metadata
   id="metadata50"><rdf:RDF><cc:Work
       rdf:about=""><dc:format>image/svg+xml</dc:format><dc:type
         rdf:resource="http://purl.org/dc/dcmitype/StillImage" /></cc:Work></rdf:RDF></metadata><defs
   id="defs48" /><sodipodi:namedview
   pagecolor="#ffffff"
   bordercolor="#666666"
   borderopacity="1"
   objecttolerance="10"
   gridtolerance="10"
   guidetolerance="10"
   inkscape:pageopacity="0"
   inkscape:pageshadow="2"
   inkscape:window-width="640"
   inkscape:window-height="480"
   id="namedview46"
   showgrid="false"
   inkscape:zoom="1.8365233"
   inkscape:cx="37.611655"
   inkscape:cy="18.588573"
   inkscape:window-x="0"
   inkscape:window-y="0"
   inkscape:window-maximized="0"
   inkscape:current-layer="svg44" />
	<style
   type="text/css"
   id="style2">
	<![CDATA[
		.st1 {fill:#1496ff;stroke:none;stroke-linecap:butt;stroke-width:0.298828}
		.st2 {fill:#1284ea;stroke:none;stroke-linecap:butt;stroke-width:0.298828}
		.st3 {fill:#b4dc00;stroke:none;stroke-linecap:butt;stroke-width:0.298828}
		.st4 {fill:#6f2da8;stroke:none;stroke-linecap:butt;stroke-width:0.298828}
		.st5 {fill:#591f91;stroke:none;stroke-linecap:butt;stroke-width:0.298828}
		.st6 {fill:#73be28;stroke:none;stroke-linecap:butt;stroke-width:0.298828}
		.st7 {fill:none;fill-rule:evenodd;font-size:12px;overflow:visible;stroke-linecap:square;stroke-miterlimit:3}
	]]>
	</style>

	<g
   id="g42"
   transform="translate(-5.8070247,-5.9046608)">
		<title
   id="title4">Page-1</title>
		<g
   id="group12356-1"
   transform="translate(5.66929,-34.0157)">
			<title
   id="title6">Dynatrace.12356</title>
			<g
   id="group12357-2">
				<title
   id="title8">Sheet.12357</title>
				<g
   id="shape12358-3"
   transform="translate(0.142318,-6.0922)">
					<title
   id="title10">Sheet.12358</title>
					<path
   d="m 19.08,50.7 c -0.72,3.83 -1.65,9.48 -2.13,15.21 -0.86,10.13 -0.33,16.91 -0.33,16.91 L 2.16,96.38 c 0,0 -1.12,-7.61 -1.68,-16.16 C 0.13,74.95 0.03,70.26 0,67.44 0,67.28 0.09,67.12 0.09,66.96 0.09,66.78 0.33,64.88 2.21,63.13 4.27,61.19 19.29,49.58 19.08,50.7 Z"
   class="st1"
   id="path12"
   inkscape:connector-curvature="0"
   style="fill:#1496ff;stroke:none;stroke-width:0.29882801;stroke-linecap:butt" />
				</g>
				<g
   id="shape12359-5"
   transform="translate(0.15069,-34.6379)">
					<title
   id="title15">Sheet.12359</title>
					<path
   d="m 19.07,79.25 c -0.72,3.83 -1.65,9.48 -2.13,15.21 0,0 -16.02,-1.88 -16.94,1.92 C 0,96.19 0.27,93.86 2.15,92.1 4.21,90.17 19.28,78.13 19.07,79.25 Z"
   class="st2"
   id="path17"
   inkscape:connector-curvature="0"
   style="fill:#1284ea;stroke:none;stroke-width:0.29882801;stroke-linecap:butt" />
				</g>
				<g
   id="shape12360-7"
   transform="translate(0,-34.6379)">
					<title
   id="title20">Sheet.12360</title>
					<path
   d="m 0.14,95.5 c 0.01,0.27 0.01,0.56 0.01,0.88 0.17,-0.7 0.44,-1.18 1.02,-1.91 1.19,-1.49 3.11,-1.88 3.88,-1.98 3.92,-0.5 9.7,-1.12 15.54,-1.3 10.31,-0.32 17.13,0.53 17.13,0.53 L 52.18,78.16 c 0,0 -7.59,-1.42 -16.23,-2.42 -5.65,-0.66 -10.64,-1 -13.42,-1.16 -0.19,-0.02 -2.2,-0.26 -4.07,1.5 C 16.39,78.01 6.04,87.68 1.88,91.57 0,93.34 0.14,95.32 0.14,95.5 Z"
   class="st3"
   id="path22"
   inkscape:connector-curvature="0"
   style="fill:#b4dc00;stroke:none;stroke-width:0.29882801;stroke-linecap:butt" />
				</g>
				<g
   id="shape12361-9"
   transform="translate(4.49,-0.266551)">
					<title
   id="title25">Sheet.12361</title>
					<path
   d="M 47.16,78.43 C 43.24,78.95 37.47,79.59 31.63,79.78 21.31,80.12 14.46,79.27 14.46,79.27 L 0,92.82 c 0,0 7.66,1.48 16.31,2.45 5.28,0.6 9.99,0.93 12.85,1.1 0.2,0.01 0.54,-0.17 0.72,-0.15 0.19,0 2.21,-0.36 4.08,-2.12 2.06,-1.94 14.35,-15.82 13.2,-15.67 z"
   class="st4"
   id="path27"
   inkscape:connector-curvature="0"
   style="fill:#6f2da8;stroke:none;stroke-width:0.29882801;stroke-linecap:butt" />
				</g>
				<g
   id="shape12362-11"
   transform="translate(33.3332,-0.285787)">
					<title
   id="title30">Sheet.12362</title>
					<path
   d="M 18.31,78.45 C 14.4,78.97 8.62,79.61 2.78,79.8 2.78,79.8 3.9,95.65 0,96.37 0.19,96.38 2.84,96.24 4.72,94.48 6.78,92.54 19.46,78.3 18.31,78.45 Z"
   class="st5"
   id="path32"
   inkscape:connector-curvature="0"
   style="fill:#591f91;stroke:none;stroke-width:0.29882801;stroke-linecap:butt" />
				</g>
				<g
   id="shape12363-13"
   transform="translate(33.3332)">
					<title
   id="title35">Sheet.12363</title>
					<path
   d="M 0.89,96.13 C 0.62,96.11 0.32,96.1 0,96.08 0.71,95.95 1.22,95.71 1.99,95.17 3.55,94.07 4.04,92.2 4.18,91.45 4.89,87.62 5.8,81.97 6.27,76.23 7.1,66.1 6.58,59.35 6.58,59.35 L 21.04,45.8 c 0,0 1.07,7.53 1.66,16.09 0.38,5.59 0.49,10.51 0.51,13.25 0,0.19 0.15,2.17 -1.73,3.93 C 19.43,81.01 9.1,90.71 4.95,94.61 3.08,96.38 1.08,96.14 0.89,96.13 Z"
   class="st6"
   id="path37"
   inkscape:connector-curvature="0"
   style="fill:#73be28;stroke:none;stroke-width:0.29882801;stroke-linecap:butt" />
				</g>
			</g>
		</g>
	</g>
</svg>

<?xml version="1.0" encoding="UTF-8" standalone="no"?>
<!DOCTYPE svg PUBLIC "-//W3C//DTD SVG 1.1//EN" "http://www.w3.org/Graphics/SVG/1.1/DTD/svg11.dtd">
<!-- Generated by Microsoft Visio, SVG Export Dynatrace.svg Page-1 -->
<svg xmlns="http://www.w3.org/2000/svg" xmlns:xlink="http://www.w3.org/1999/xlink" xmlns:ev="http://www.w3.org/2001/xml-events"
		width="0.944882in" height="1.33858in" viewBox="0 0 68.0315 96.378" xml:space="preserve" color-interpolation-filters="sRGB"
		class="st7">
	<style type="text/css">
	<![CDATA[
		.st1 {fill:#1496ff;stroke:none;stroke-linecap:butt;stroke-width:0.298828}
		.st2 {fill:#1284ea;stroke:none;stroke-linecap:butt;stroke-width:0.298828}
		.st3 {fill:#b4dc00;stroke:none;stroke-linecap:butt;stroke-width:0.298828}
		.st4 {fill:#6f2da8;stroke:none;stroke-linecap:butt;stroke-width:0.298828}
		.st5 {fill:#591f91;stroke:none;stroke-linecap:butt;stroke-width:0.298828}
		.st6 {fill:#73be28;stroke:none;stroke-linecap:butt;stroke-width:0.298828}
		.st7 {fill:none;fill-rule:evenodd;font-size:12px;overflow:visible;stroke-linecap:square;stroke-miterlimit:3}
	]]>
	</style>

	<g>
		<title>Page-1</title>
		<g id="group12074-1" transform="translate(5.66929,-34.0157)">
			<title>Dynatrace.12074</title>
			<g id="group12075-2">
				<title>Sheet.12075</title>
				<g id="shape12076-3" transform="translate(0.142318,-6.0922)">
					<title>Sheet.12076</title>
					<path d="M19.08 50.7 C18.36 54.53 17.43 60.18 16.95 65.91 C16.09 76.04 16.62 82.82 16.62 82.82 L2.16 96.38 C2.16
								 96.38 1.04 88.77 0.48 80.22 C0.13 74.95 0.03 70.26 0 67.44 C0 67.28 0.09 67.12 0.09 66.96 C0.09
								 66.78 0.33 64.88 2.21 63.13 C4.27 61.19 19.29 49.58 19.08 50.7 Z" class="st1"/>
				</g>
				<g id="shape12077-5" transform="translate(0.15069,-34.6379)">
					<title>Sheet.12077</title>
					<path d="M19.07 79.25 C18.35 83.08 17.42 88.73 16.94 94.46 C16.94 94.46 0.92 92.58 0 96.38 C0 96.19 0.27 93.86
								 2.15 92.1 C4.21 90.17 19.28 78.13 19.07 79.25 Z" class="st2"/>
				</g>
				<g id="shape12078-7" transform="translate(-2.83773E-13,-34.6379)">
					<title>Sheet.12078</title>
					<path d="M0.14 95.5 C0.15 95.77 0.15 96.06 0.15 96.38 C0.32 95.68 0.59 95.2 1.17 94.47 C2.36 92.98 4.28 92.59
								 5.05 92.49 C8.97 91.99 14.75 91.37 20.59 91.19 C30.9 90.87 37.72 91.72 37.72 91.72 L52.18 78.16
								 C52.18 78.16 44.59 76.74 35.95 75.74 C30.3 75.08 25.31 74.74 22.53 74.58 C22.34 74.56 20.33 74.32
								 18.46 76.08 C16.39 78.01 6.04 87.68 1.88 91.57 C0 93.34 0.14 95.32 0.14 95.5 Z" class="st3"/>
				</g>
				<g id="shape12079-9" transform="translate(4.49,-0.266551)">
					<title>Sheet.12079</title>
					<path d="M47.16 78.43 C43.24 78.95 37.47 79.59 31.63 79.78 C21.31 80.12 14.46 79.27 14.46 79.27 L0 92.82 C0 92.82
								 7.66 94.3 16.31 95.27 C21.59 95.87 26.3 96.2 29.16 96.37 C29.36 96.38 29.7 96.2 29.88 96.22 C30.07
								 96.22 32.09 95.86 33.96 94.1 C36.02 92.16 48.31 78.28 47.16 78.43 Z" class="st4"/>
				</g>
				<g id="shape12080-11" transform="translate(33.3332,-0.285787)">
					<title>Sheet.12080</title>
					<path d="M18.31 78.45 C14.4 78.97 8.62 79.61 2.78 79.8 C2.78 79.8 3.9 95.65 0 96.37 C0.19 96.38 2.84 96.24 4.72
								 94.48 C6.78 92.54 19.46 78.3 18.31 78.45 Z" class="st5"/>
				</g>
				<g id="shape12081-13" transform="translate(33.3332,0)">
					<title>Sheet.12081</title>
					<path d="M0.89 96.13 C0.62 96.11 0.32 96.1 0 96.08 C0.71 95.95 1.22 95.71 1.99 95.17 C3.55 94.07 4.04 92.2 4.18
								 91.45 C4.89 87.62 5.8 81.97 6.27 76.23 C7.1 66.1 6.58 59.35 6.58 59.35 L21.04 45.8 C21.04 45.8 22.11
								 53.33 22.7 61.89 C23.08 67.48 23.19 72.4 23.21 75.14 C23.21 75.33 23.36 77.31 21.48 79.07 C19.43
								 81.01 9.1 90.71 4.95 94.61 C3.08 96.38 1.08 96.14 0.89 96.13 Z" class="st6"/>
				</g>
			</g>
		</g>
	</g>
</svg>
